build/images/regions/european-union.svg

<svg width="30" height="30" viewBox="0 0 30 30" fill="none" xmlns="http://www.w3.org/2000/svg">
<path d="M15 30C23.2843 30 30 23.2843 30 15C30 6.71573 23.2843 0 15 0C6.71573 0 0 6.71573 0 15C0 23.2843 6.71573 30 15 30Z" fill="#0052B4"/>
<path d="M15.0007 5.86963L15.4864 7.3643H17.0579L15.7864 8.28803L16.2721 9.78271L15.0007 8.85891L13.7292 9.78271L14.2149 8.28803L12.9435 7.3643H14.515L15.0007 5.86963Z" fill="#FFDA44"/>
<path d="M8.54392 8.54373L9.94431 9.25717L11.0555 8.146L10.8096 9.69815L12.21 10.4116L10.6577 10.6575L10.4119 12.2098L9.69839 10.8094L8.14624 11.0554L9.25747 9.94412L8.54392 8.54373Z" fill="#FFDA44"/>
<path d="M5.86987 15.0002L7.36454 14.5145V12.9429L8.28821 14.2144L9.78294 13.7287L8.85909 15.0002L9.78294 16.2716L8.28821 15.786L7.36454 17.0574V15.4859L5.86987 15.0002Z" fill="#FFDA44"/>
<path d="M8.54392 21.4564L9.25741 20.056L8.14624 18.9448L9.69845 19.1907L10.4118 17.7904L10.6577 19.3426L12.2099 19.5885L10.8097 20.302L11.0555 21.8541L9.94431 20.7429L8.54392 21.4564Z" fill="#FFDA44"/>
<path d="M15.0007 24.1305L14.515 22.6358H12.9435L14.215 21.7121L13.7292 20.2175L15.0007 21.1412L16.2721 20.2175L15.7864 21.7121L17.0579 22.6358H15.4863L15.0007 24.1305Z" fill="#FFDA44"/>
<path d="M21.4568 21.4564L20.0565 20.7429L18.9452 21.8542L19.1911 20.3019L17.7909 19.5885L19.343 19.3426L19.5889 17.7904L20.3023 19.1907L21.8545 18.9448L20.7433 20.0561L21.4568 21.4564Z" fill="#FFDA44"/>
<path d="M24.1305 15.0002L22.6358 15.4859V17.0574L21.7121 15.7859L20.2175 16.2716L21.1413 15.0002L20.2175 13.7287L21.7121 14.2144L22.6358 12.9429V14.5145L24.1305 15.0002Z" fill="#FFDA44"/>
<path d="M21.4568 8.54373L20.7433 9.94412L21.8545 11.0554L20.3023 10.8094L19.5889 12.2097L19.343 10.6575L17.7909 10.4116L19.1911 9.69815L18.9452 8.14606L20.0565 9.25723L21.4568 8.54373Z" fill="#FFDA44"/>
</svg>

<svg width="30" height="30" fill="none" xmlns="http://www.w3.org/2000/svg"><path d="M15 30c8.284 0 15-6.716 15-15 0-8.284-6.716-15-15-15C6.716 0 0 6.716 0 15c0 8.284 6.716 15 15 15z" fill="#0052B4"/><path d="M15 5.87l.486 1.494h1.572l-1.272.924.486 1.495-1.271-.924-1.272.924.486-1.495-1.271-.924h1.571l.486-1.494zM8.544 8.544l1.4.713 1.111-1.111-.245 1.552 1.4.714-1.552.245-.246 1.553-.714-1.4-1.552.245 1.111-1.11-.713-1.401zM5.87 15l1.495-.486v-1.571l.923 1.271 1.495-.485L8.859 15l.924 1.272-1.495-.486-.923 1.271v-1.571L5.87 15zm2.674 6.456l.713-1.4-1.11-1.111 1.551.246.714-1.4.246 1.552 1.552.245-1.4.714.245 1.552-1.11-1.111-1.401.713zM15 24.13l-.485-1.494h-1.572l1.272-.924-.486-1.494 1.272.923 1.271-.923-.486 1.494 1.272.924h-1.572l-.485 1.495zm6.457-2.674l-1.4-.713-1.112 1.111.246-1.552-1.4-.713 1.552-.246.246-1.553.713 1.4 1.553-.245-1.112 1.111.714 1.4zM24.13 15l-1.494.486v1.571l-.924-1.271-1.494.486L21.14 15l-.923-1.271 1.494.485.924-1.271v1.572L24.13 15zm-2.673-6.456l-.714 1.4 1.112 1.111-1.553-.246-.713 1.4-.246-1.551-1.552-.246 1.4-.714-.246-1.552 1.111 1.111 1.4-.713z" fill="#FFDA44"/></svg>
